!!!!SEGMENT: pl-kk--kk-i-359--002_maxylewicz-wincenty--alleluja-ave-maria.krn
!!!cenid: 16xx:728
!!!COM: Maxylewicz, Wincenty
!!!COM-rismID: pe30105799
!!!CDT: ~1685-1745/01/24
!!!CNT: Polish
!!!OTL: Alleluja Ave Maria
!!!PDT: 1650
!!!AGN: Sacred
!!!SMS-siglum: PL-Kk
!!!SMS-shelfmark: Kk.I.359
!!!SMS-shelfwork: 002 W
!!!SMS-variant: Basſo. PL KK KK I 359 14:9-10
!!!SMS-altvar: Basſo Ripieno. PL KK KK I 359 14:11-12
!!!NIFC-rismSourceID: 1001135319
!!!NIFC-rismChildID: 1001135334
!!!NIFC-islandoraID: pl-kk:5955
!!!URL-pdf-islandora: https://repozytorium.nifc.pl/islandora/object/pl-kk%3A5955/datastream/PDF/view
!!!URL-scan: https://polish.musicsources.pl/pl/lokalizacje/galeria/rekopisy/5974 @EN{Scan on Polish Music Sources Website} @PL{Skany w portalu Dziedzictwo Muzyki Polskiej w otwartym dostępie}
!!!IIIF:
!!!ONB-nifc: UWAGA: utwory w zbiorze: 1. Tolite portas, 2. Alleluja Ave Maria,
!!!AIN: 1 alto 1 empty 1 tenor 1 vox
!!!key:
**kern	**text	**kern	**text	**kern	**text	**kern	**text
*part4	*part4	*part3	*part3	*part2	*part2	*part1	*part1
*staff4	*staff4	*staff3	*staff3	*staff2	*staff2	*staff1	*staff1
*Iempty	*	*Itenor	*	*Ialto	*	*Ivox	*
*I"Baſso.	*	*I"Tenore	*	*I"Alto.	*	*I"Canto.	*
*I'B	*	*I'T	*	*I'A	*	*I'S	*
*clefF4	*	*clefC4	*	*clefC3	*	*clefC1	*
*k[b-]	*	*k[b-]	*	*k[b-]	*	*k[b-]	*
*F:	*	*F:	*	*F:	*	*F:	*
*M2/2	*	*M2/2	*	*M2/2	*	*M2/2	*
*met(c|)	*	*met(c|)	*	*met(c|)	*	*met(c|)	*
*>[A,B,A]	*	*>[A,B,A]	*	*>[A,B,A]	*	*>[A,B,A]	*
=1	=1	=1	=1	=1	=1	=1	=1
*>A	*	*>A	*	*>A	*	*>A	*
*2\right	*	*	*	*2\right	*	*2\right	*
!	!	!LO:TX:a:B:t=1.	!	!	!	!	!
00r	.	1r	.	4r	.	00r	.
!	!	!	!	!LO:TX:a:Bi:t=ſ.	!	!	!
.	.	.	.	2f\	al-	.	.
.	.	.	.	4f\	-le-	.	.
!	!	!	!	!LO:LB:g=original	!	!	!
=2	=2	=2	=2	=2	=2	=2	=2
*	*	*2\right	*	*	*	*	*
.	.	4r	.	2e\	-lu-	.	.
.	.	2c\	al-	.	.	.	.
.	.	.	.	2c/	.	.	.
.	.	4c\	-le-	.	.	.	.
=3	=3	=3	=3	=3	=3	=3	=3
.	.	2Bn\	-lu-	1d	.	.	.
.	.	2G/	-ja	.	.	.	.
=4	=4	=4	=4	=4	=4	=4	=4
.	.	1A	al-	2c/	-ja	.	.
.	.	.	.	[<2f\	al-	.	.
=5	=5	=5	=5	=5	=5	=5	=5
1r	.	2G/	-le-	2f\]	.	0r	.
.	.	[<2c\	.	2e\	.	.	.
=6	=6	=6	=6	=6	=6	=6	=6
4r	.	2c\]	.	2d\	-le-	.	.
2G\	al-	.	.	.	.	.	.
.	.	2Bn\	-lu-	2d\	-lu-	.	.
4G\	-le-	.	.	.	.	.	.
=7	=7	=7	=7	=7	=7	=7	=7
2E\	-lu-	4c,<\	-ja	1g	-ja	4r	.
.	.	2e\	al-	.	.	2cc\	al-
2E\	-ja	.	.	.	.	.	.
.	.	4d\	-le-	.	.	4cc\	-le-
!	!	!LO:LB:g=original	!	!	!	!	!
=8	=8	=8	=8	=8	=8	=8	=8
4r	.	2c\	-lu-	4r	.	2a\	-lu-
2F\	al-	.	.	2a\	al-	.	.
.	.	2c\	-ja	.	.	2a\	-ja
4F\	-le-	.	.	4a\	-le-	.	.
=9	=9	=9	=9	=9	=9	=9	=9
2D/	-lu-	4r	.	2f\	-lu-	4r	.
.	.	2d\	al-	.	.	2bn\	al-
2D/	-ja	.	.	2f\	-ja	.	.
.	.	4d\	-le-	.	.	4b\	-le-
=10	=10	=10	=10	=10	=10	=10	=10
2E\	al-	4Bn\	-lu-	2e\	al-	4g#X/	-lu-
.	.	4B\	-ja	.	.	4g#/	-ja
2D/	-le-	4f\	al-	2a\	-le-	4cc\	al-
.	.	4f\	-le-	.	.	4cc\	-le-
=11	=11	=11	=11	=11	=11	=11	=11
1E	-lu-	1e	-lu-	2a\	-lu-	1bn	-lu-
.	.	.	.	2g#X\	.	.	.
=12	=12	=12	=12	=12	=12	=12	=12
4AA/	-ja	1e	-ja	2.a\	-ja	4a,<\	-ja
2A\	al-	.	.	.	.	2cc\	al-
*	*	*	*	*custos:f	*	*	*
4A\	-le-	.	.	4e\	al-	4cc\	-le-
!LO:LB:g=original	!	!	!	!LO:PB:g=original	!	!LO:LB:g=original	!
=13	=13	=13	=13	=13	=13	=13	=13
2F\	-lu-	4r	.	2f\	-le-	2a\	lu-
.	.	2d\	al-	.	.	.	.
2F\	-ja	.	.	2f\	-lu-	2a\	-ja
.	.	4d\	-le-	.	.	.	.
=14	=14	=14	=14	=14	=14	=14	=14
4r	.	2Bn\	-lu-	2.d\	-ja	4r	.
*	*ij	*	*	*	*	*	*
2G\	al-	.	.	.	.	2bn\	al-
.	.	2B\	-ja	.	.	.	.
4G\	-le-	.	.	4d\	al-	4b\	-le-
=15	=15	=15	=15	=15	=15	=15	=15
2E\	-lu-	4r	.	2e\	-le-	2g/	-lu-
.	.	2c\	al-	.	.	.	.
2E\	-ja	.	.	2e\	-lu-	2g/	-ja
.	.	4c\	-le-	.	.	.	.
*	*Xij	*	*	*	*	*	*
=16	=16	=16	=16	=16	=16	=16	=16
1F	al-	2c\	-lu-	2c,</	-ja	2a\	al-
.	.	4c\	-ja	[>2f\	al-	2a\	-le-
.	.	4A/	al-	.	.	.	.
=17	=17	=17	=17	=17	=17	=17	=17
4.G\	-le-	2.G/	-le-	2f\]	.	4bn\	-lu-
.	.	.	.	.	.	4g/	ja
8F\	.	.	.	.	.	.	.
4E\	.	.	.	2e\	-le-	[<2cc\	al-
4C/	.	4G/	-lu-	.	.	.	.
=18	=18	=18	=18	=18	=18	=18	=18
!	!	!	!	!LO:TX:a:t=P:problem=w źródle kreska taktowa delikatnie przekreślona innym atramentem	!	!	!
!	!	!	!	!	!	!LO:N:xstem:cue	!
1G	-lu-	2G,</	-ja	1d	-lu-	4cc\]	.
.	.	.	.	.	.	4dd\	-le-
!	!	!	!	!	!	!LO:TX:a:t=P:problem=w źródle kreska taktowa delikatnie przekreślona innym atramentem	!
.	.	[<2G/	al-	.	.	2bn\	-lu-
!	!	!LO:LB:g=original	!	!	!	!	!
=19	=19	=19	=19	=19	=19	=19	=19
!	!	!	!	!LO:TX:a:t=P:problem=w źródle dwa oddechy po nucie 2c	!	!	!
2C,</	-ja	2G/]	.	2c,</	-ja	2cc,<\	-ja
!	!	!	!	!LO:TX:a:t=P:problem=w źródle kreska taktowa delikatnie przekreślona innym atramentem	!	!	!
2r	.	[<2A/	-le-	[<2c/	al-	2r	.
=20	=20	=20	=20	=20	=20	=20	=20
*custos	*	*	*	*	*	*	*
!LO:TX:a:t=P:problem=w źródle znak custos użyty jako łamanie pięciolinni	!	!	!	!	!	!	!
!LO:TX:a:B:t=1.	!	!	!	!LO:TX:a:t=P:problem=w źródle przekeślony oddech [pomyłka skryptora]	!	!	!
1r	.	2A/]	.	2c/]	.	0r	.
.	.	2G/	.	[<2d\	-le-	.	.
!LO:PB:g=original	!	!	!	!	!	!	!
=21	=21	=21	=21	=21	=21	=21	=21
2r	.	2C/	.	2d\]	.	.	.
[<2C/	al-	2G/	.	2c/	.	.	.
=22	=22	=22	=22	=22	=22	=22	=22
2C/]	.	2.A/	.	2e\	-lu-	1r	.
[<2D/	-le-	.	.	2f\	.	.	.
.	.	4A/	-lu-	.	.	.	.
=23	=23	=23	=23	=23	=23	=23	=23
2D/]	.	1G	-ja	1e	-ja	2r	.
2C/	-lu-	.	.	.	.	[<2g/	al-
=24	=24	=24	=24	=24	=24	=24	=24
2E\	-ja	1c	al-	2c/	al-	2g/]	.
2F\	al-	.	.	[<2f\	.	[<2a/	-le-
!	!	!	!	!LO:LB:g=original	!	!LO:PB:g=original	!
=25	=25	=25	=25	=25	=25	=25	=25
!	!	!	!	!	!	!LO:TX:a:t=P:problem=W źródle po zmianie strony łuk ligaturowy obraca się	!
2D/	-le-	1B-X	-le-	2f\]	.	2a\]	.
2E\	-lu-	.	.	[<2g\	-le-	2g/	-lu-
=26	=26	=26	=26	=26	=26	=26	=26
1F	-ja	1A	.	2g\]	.	2cc\	-ja
.	.	.	.	[<2f\	.	2cc\	al-
=27	=27	=27	=27	=27	=27	=27	=27
2G\	al-	(>2d\	-lu-	2f\]	.	2bn\	-le-
2C/	-le-	2c\)	.	2e\	-lu-	2g/	.
=28	=28	=28	=28	=28	=28	=28	=28
2F\	-lu-	1c	-ja	2f\	-ja	2a\	-lu-
2E\	-ja	.	.	(>2g\	al-	2g/	-ja
=29	=29	=29	=29	=29	=29	=29	=29
2F\	al-	1c	al-	2a\)	.	1r	.
2C/	-le-	.	.	2g\	-le-	.	.
=30	=30	=30	=30	=30	=30	=30	=30
2F\	-lu-	1c	-le-	2a\	-lu-	2f/	al-
2E\	-ja	.	.	2g\	-ja	2cc\	-le-
!LO:LB:g=original	!	!	!	!	!	!	!
=31	=31	=31	=31	=31	=31	=31	=31
2F\	al-	1c	-lu-	2r	.	2ff\	-lu-
2A\	-le-	.	.	2c/	al-	2cc\	-ja
!	!	!LO:PB:g=original	!	!	!	!	!
=32	=32	=32	=32	=32	=32	=32	=32
2c\	-lu-	1c	.	2e\	-le-	2c/	al-
[<2C/	-ja	.	.	[<2g\	-lu-	2e/	-le-
=33	=33	=33	=33	=33	=33	=33	=33
!	!	!LO:TX:t=P:problem=brak kreski taktowej	!	!	!	!	!
!LO:N:xstem:cue	!	!	!	!	!	!	!
4C/]	.	1c,<	-ja	4g\]	.	2.g/	-lu-
4D/	.	.	.	4f\	.	.	.
2E\	.	.	.	4e\	.	.	.
.	.	.	.	4f\	.	4f/	.
=34	=34	=34-	=34-	=34	=34	=34	=34
2C/	al-	1c	al-	2g\	.	2e,</	-ja
[<2F\	-le-	.	.	2a\	-ja	4f/	al-
.	.	.	.	.	.	4g/	.
=35	=35	=35	=35	=35	=35	=35	=35
!LO:N:xstem:cue	!	!	!	!	!	!	!
4F\]	.	1c	-le-	2r	.	4a\	.
4G\	.	.	.	.	.	4b-\	.
4A\	.	.	.	2c/	al-	[<2cc\	.
4B-X\	.	.	.	.	.	.	.
!	!	!	!	!LO:LB:g=original	!	!LO:LB:g=original	!
=36	=36	=36	=36	=36	=36	=36	=36
!	!	!	!	!	!	!LO:TX:a:t=P:problem=W źródle po łamaniu systemu łuk ligaturowy obraca się	!
2.c\	.	1c	-lu-	2e\	-le-	4cc\]	.
.	.	.	.	.	.	4dd\	.
.	.	.	.	2g\	-lu-	2ee\	.
4B-X\	.	.	.	.	.	.	.
=37	=37	=37	=37	=37	=37	=37	=37
(>4A\	-lu-	1c	-ja	2c/	-ja	2ff\	.
4G\)	.	.	.	.	.	.	.
2F\	-ja	.	.	2f\	al-	2a\	-le
=38	=38	=38	=38	=38	=38	=38	=38
2G\	al-	2Bn\	al-	2d\	-le-	[<1g	lu-
2C/	-le-	[>2c\	-le-	2e\	.	.	.
=39	=39	=39	=39	=39	=39	=39	=39
2.G\	-lu-	2c\]	.	1d	lu-	1g]	.
.	.	2Bn\	-lu-	.	.	.	.
!LO:TX:a:t=P:problem=w źródle nad nutą 4G pozioma kreska	!	!	!	!	!	!	!
4G\	.	.	.	.	.	.	.
=40	=40	=40	=40	=40	=40	=40	=40
2C,</	-ja	2c\	-ja	2c/	-ja	2g,</	-ja
!LO:LB:g=original	!	!	!	!	!	!	!
2F\	al-	2r	.	2r	.	2a\	al-
=41	=41	=41	=41	=41	=41	=41	=41
2.G\	-le-	2d\	al-	2d\	al-	2.b-X\	-le-
.	.	2B-X\	-le-	[y2e\	-le-	.	.
4E\	.	.	.	.	.	4g/	.
=42	=42	=42	=42	=42	=42	=42	=42
!	!	!	!	!LO:N:xstem:cue	!	!	!
2.A\	.	2c\	-lu-	4e\]	.	2.cc\	.
.	.	.	.	4c/	.	.	.
.	.	2A/	-ja	[<2f\	.	.	.
4F\	.	.	.	.	.	4a\	.
=43	=43	=43	=43	=43	=43	=43	=43
!	!	!	!	!LO:N:xstem:cue	!	!	!
2.B-X\	.	1B-X	al-	4f\]	.	2.dd\	.
.	.	.	.	4d\	.	.	.
.	.	.	.	[<2g\	.	.	.
4G\	.	.	.	.	.	4dd\	-lu-
=44	=44	=44	=44	=44	=44	=44	=44
2.A\	.	2A/	-le-	2g\]	.	2.cc#X,<\	-ja
.	.	[>2d\	.	2f\	.	.	.
4D/	.	.	.	.	.	4dd\	al-
=45	=45	=45	=45	=45	=45	=45	=45
2G\	.	4d\]	.	2g\	.	4bn\	le-
.	.	4A/	.	.	.	4cc#X\	.
!	!	!LO:TX:a:t=P:problem=w źródle sylaba wykreślona przez skryptora	!	!	!	!	!
2D/	.	2A/	//-lu-//	2f\	.	[<2dd\	.
!	!	!LO:LB:g=original	!	!	!	!LO:LB:g=original	!
=46	=46	=46	=46	=46	=46	=46	=46
!	!	!	!	!	!	!LO:TX:a:t=P:problem=w źródle po łamaniu systemu łuk ligaturowy urywa się	!
1A	lu-	1A	-lu-	1e	-lu-	2dd\]	.
.	.	.	.	.	.	2cc#X\	-lu-
!	!	!	!	!LO:LB:g=original	!	!	!
=47	=47	=47	=47	=47	=47	=47	=47
2.D,</	-ja	4A,</	-ja	2.d,<\	-ja	4dd,<\	-ja
*	*	*	*ij	*	*	*	*
!	!	!LO:TX:t=P:problem=w źródle powtórzenie tekstu lub kontynuacja ostatniej sylaby	!	!	!	!	!
.	.	4A/	al-	.	.	4a\	al-
.	.	2d\	-le-	.	.	[<2b-X\	-le-
4D/	al-	.	.	4f\	al-	.	.
=48	=48	=48	=48	=48	=48	=48	=48
2.E\	-le-	4r	.	2.g\	-le-	4b-\]	.
.	.	4c\	-lu-	.	.	4g/	.
.	.	2G/	-ja	.	.	[<2ccn\	.
4C/	.	.	.	4e\	.	.	.
*	*	*	*Xij	*	*	*	*
=49	=49	=49	=49	=49	=49	=49	=49
2.F\	.	4r	.	2.a\	.	4cc\]	.
.	.	4c\	al-	.	.	4a\	.
.	.	4d\	-le-	.	.	2dd\	.
4BB-X/	.	4d\	-lu-	4b-\	-lu-	.	.
!LO:LB:g=original	!	!	!	!	!	!	!
=50	=50	=50	=50	=50	=50	=50	=50
!	!	!	!	!LO:TX:a:t=P:4\right:problem	!	!	!
2C/	.	2e\	-ja	4a\	-ja	4cc\	.
.	.	.	.	4g\	al-	4b-X\	.
2F\	.	4c\	al-	[<2f\	-le-	2a\	.
.	.	4c\	-le-	.	.	.	.
=51	=51	=51	=51	=51	=51	=51	=51
1C	-lu-	1c	-lu-	2f\]	.	1g	-lu-
.	.	.	.	2e\	-lu-	.	.
=52	=52	=52	=52	=52	=52	=52	=52
2F,<\	-ja	2c,<\	-ja	2f,<\	-ja	2f,</	-ja
2F\	al-	2c\	al-	2f\	al-	2cc\	al-
=53	=53	=53	=53	=53	=53	=53	=53
2E\	-le-	2e\	-le-	2g\	le-	2cc\	-le-
2E\	-lu-	2e\	-lu-	2g\	-lu-	2cc\	-lu-
=54	=54	=54	=54	=54	=54	=54	=54
2D/	-ja	2f,<\	-ja	2a,<\	-ja	2dd\	-ja
4BB-X/	al-	4f\	al-	4b-X\	al-	4dd\	al-
4BB-/	-le-	4f\	-le-	4b-\	-le-	4dd\	-le-
=55	=55	=55	=55	=55	=55	=55	=55
2C/	-lu-	[<1c	-lu-	2e\	-lu-	2g/	-lu-
2F\	.	.	.	[>2f\	.	2a\	.
!	!	!	!	!	!	!LO:LB:g=original	!
=56	=56	=56	=56	=56	=56	=56	=56
1C	.	1c]	.	2f\]	.	1g	.
.	.	.	.	2e\	.	.	.
=57	=57	=57	=57	=57	=57	=57	=57
1FF;>	-ja.	1c;>	-ja	1f;>	-ja	1f;>	-ja
!LO:LB:g=original	!	!LO:LB:g=original	!	!LO:LB:g=original	!	!	!
=||	=||	=||	=||	=||	=||	=||	=||
*>B	*	*>B	*	*>B	*	*>B	*
*M2/2	*	*M2/2	*	*M2/2	*	*M2/2	*
*met(c|)	*	*met(c|)	*	*met(c|)	*	*met(c|)	*
2r	.	2r	.	2r	.	2r	.
2F\	A-	2c\	A-	2f\	a-	2a\	A-
=58	=58	=58	=58	=58	=58	=58	=58
2F\	-ve	2c\	-ve	2f\	-ve	2a\	-ve
2E\	Ma-	2c\	Ma-	2g\	Ma-	2g/	Ma-
=59	=59	=59	=59	=59	=59	=59	=59
2F\	-ri-	2c\	-ri-	2f\	-ri-	2a\	-ri-
2E\	-a	2c\	-a	2c/	-a	2g/	-a
=60	=60	=60	=60	=60	=60	=60	=60
4.D/	gra-	4.c\	gra-	4.f\	gra-	4.a\	gra-
8D/	-ti-	8c\	-ti-	8f\	-ti-	8a\	-ti-
2D/	-a	2Bn\	-a	2f\	-a	2dd\	-a
=61	=61	=61	=61	=61	=61	=61	=61
4C/	ple-	4c\	ple-	4e\	ple-	4g/	ple-
4C/	-na	4c\	-na	4e\	-na	4g/	-na
4D/	Do-	4A\	Do-	4f\	Do-	4dd\	Do-
4D/	-mi-	4A\	-mi-	4f\	-mi-	4dd\	-mi-
=62	=62	=62	=62	=62	=62	=62	=62
(<2AA/	-n(us)	2A/	-nus	2f\	-n(us)	2cc\	-n(us)
2BB-/)	.	2d\	Te-	[<2f\	Te-	4b-X\	Te-
.	.	.	.	.	.	4a\	.
=63	=63	=63	=63	=63	=63	=63	=63
1C	Te-	1c	.	2f\]	.	1g	.
.	.	.	.	2e\	.	.	.
=64	=64	=64	=64	=64	=64	=64	=64
2F,<\	-cum	2c,>\	-cum	2f,<\	-cum	2a,<\	cum
4F\	be-	4F/	be-	4c/	be-	4a\	be-
4E\	-ne-	4G/	-ne-	4c/	-ne-	4g\	-ne-
!	!	!LO:LB:g=original	!	!	!	!LO:LB:g=original	!
=65	=65	=65	=65	=65	=65	=65	=65
(>4D\	-di-	2A/	-di-	2.d\	-di-	(>4f/	-di-
4E\)	.	.	.	.	.	4g/)	.
(>4F\	-cte-	2A/	-cta	.	.	4a\	-cta
4G\)	.	.	.	4g\	-cta	4b-\	.
!	!	!	!	!LO:LB:g=original	!	!	!
=66	=66	=66	=66	=66	=66	=66	=66
2A\	-Tu	2A/	Tu	2f\	Tu	2cc\	Tu
2A\	in	2A/	in	2f\	in	2cc\	in
!LO:LB:g=original	!	!	!	!	!	!	!
=67	=67	=67	=67	=67	=67	=67	=67
*	*	*	*	*2\left	*	*	*
!	!	!	!	!LO:TX:t=P:2\left:problem	!	!	!
2B-X\	mu-	2d\	mu-	2f\	mu-	2dd\	mu-
*	*	*	*	*2\right	*	*	*
2A\	-li-	2A/	-li-	2f\	-li-	2cc\	-li-
=68	=68	=68	=68	=68	=68	=68	=68
2.G\	-e-	2.B-X/	-e-	2f\	-e-	2.b-X\	-e-
.	.	.	.	2e\	-ri-	.	.
4G\	-ri-	4B-/	-ri-	.	.	4b-\	-ri-
=69	=69	=69	=69	=69	=69	=69	=69
!	!	!	!	!	!	!LO:TX:a:t=P:problem=w źródle kreska taktowa delikatnie przekreślona innym atramentem	!
1F	-buſ	1F	-buſ	1f	-buſ	1a	-buſ
=70	=70	=70	=70	=70	=70	=70	=70
!LO:TX:a:B:t=4	!	!	!	!LO:TX:a:B:t=1.	!	!	!
00r	.	0r	.	1r	.	2dd\	et
.	.	.	.	.	.	4g/	be-
.	.	.	.	.	.	4g/	-ne-
=71	=71	=71	=71	=71	=71	=71	=71
.	.	.	.	2a\	et	2cc\	-di-
.	.	.	.	4d\	be-	2f/	-ct(us)
.	.	.	.	4d\	-ne-	.	.
=72	=72	=72	=72	=72	=72	=72	=72
.	.	1r	.	2g\	-di-	4b-\	fru-
.	.	.	.	.	.	4b-\	-ct(us)
.	.	.	.	2c/	-ct(us)	4b-\	ven-
.	.	.	.	.	.	(>8cc\L	-tris
.	.	.	.	.	.	8b-\J)	.
=73	=73	=73	=73	=73	=73	=73	=73
.	.	2d\	et	4f\	fru-	4a\	ven-
.	.	.	.	4f\	-ct(us)	(>8g\L	-tris
.	.	.	.	.	.	8a\J)	.
.	.	4G/	be-	4f\	Ve-	4b-\	tu-
.	.	4G/	-ne-	(>8g\L	.	8cc\L	.
.	.	.	.	8f\J)	.	8b-\J	.
=74	=74	=74	=74	=74	=74	=74	=74
2A\	Et	2c\	-di-	4e\	.	1a	-i
.	.	.	.	4c/	-tris	.	.
4D/	be-	2F/	-ct(us)	[<2f\	Ven-	.	.
4D/	-ne-	.	.	.	.	.	.
!	!	!	!	!	!	!LO:LB:g=original	!
=75	=75	=75	=75	=75	=75	=75	=75
2G\	-di-	4B-X\	fru-	4f\]	.	1r	.
.	.	4B-\	-ct(us)	8g\L	.	.	.
.	.	.	.	8f\J	.	.	.
2C/	-ct(us)	4B-\	ven-	[<2e\	.	.	.
.	.	(>8c\L	.	.	.	.	.
.	.	8B-\J)	.	.	.	.	.
!	!	!	!	!LO:LB:g=original	!	!	!
=76	=76	=76	=76	=76	=76	=76	=76
4F\	fru-	2.A/	.	4e\]	.	2a\	et
4F\	-ct(us)	.	.	8f\L	.	.	.
.	.	.	.	8e\J	.	.	.
4F\	ven-	.	.	[>2d\	.	4d/	be-
(>8G\L	-tris	8B-\L	.	.	.	4d/	-ne-
8F\J)	.	8A\J	.	.	.	.	.
!	!	!LO:LB:g=original	!	!	!	!	!
=77	=77	=77	=77	=77	=77	=77	=77
4E\	ven-	4G/	.	4d\]	.	2g/	-di-
8F\L	.	(8A\L	-tris	8e\L	.	.	.
8G\J	.	8B-\J)	.	8d\J	.	.	.
2A\	.	2c\	Tu-	[<2c/	.	2c/	-ct(us)
=78	=78	=78	=78	=78	=78	=78	=78
4D/	.	2A/	-i	4c/]	.	4f/	fru-
8E\L	.	.	.	(>8d\L	-tris	4f/	-ct(us)
8F\J	.	.	.	8c\J)	.	.	.
2G\	.	2r	.	2Bn/	Tu-	4f/	ven-
.	.	.	.	.	.	(<8g/L	tris
.	.	.	.	.	.	8f/J)	.
=79	=79	=79	=79	=79	=79	=79	=79
!	!	!LO:TX:a:B:t=1.	!	!	!	!	!
4C/	.	1r	.	2c/	-i	4e/	Tu-
8D/L	.	.	.	.	.	4c/	-i
8E/J	.	.	.	.	.	.	.
4F\	.	.	.	4a\	be-	[<2cc\	Ven-
4E\	-triſ	.	.	4g\	-ne-	.	.
!LO:LB:g=original	!	!	!	!	!	!	!
=80	=80	=80	=80	=80	=80	=80	=80
1D	Tu-	2A/	et	4f\	-di-	4cc\]	.
.	.	.	.	4f\	-ct(us)	(>8dd\L	-tris
.	.	.	.	.	.	8cc\J)	.
.	.	4D/	be-	2f\	fru-	2bn\	Tu-
.	.	4D/	-ne-	.	.	.	.
=81	=81	=81	=81	=81	=81	=81	=81
2C/	-i	2G/	-di-	2e\	-ct(us)	2cc\	-i
2r	.	2C/	-ct(us)	4e\	Ven-	2r	.
.	.	.	.	(>8f\L	.	.	.
.	.	.	.	8g\J)	.	.	.
=82	=82	=82	=82	=82	=82	=82	=82
0r	.	4F/	fru-	4a\	.	2r	.
.	.	4F/	-ct(us)	8g\L	.	.	.
.	.	.	.	8a\J	.	.	.
.	.	4F/	ven-	4d\	.	2dd\	et
.	.	(<8G/L	-tris	8e\L	.	.	.
.	.	8F/J)	.	8f\J	.	.	.
=83	=83	=83	=83	=83	=83	=83	=83
.	.	4E/	Ven-	4g\	.	4g\	be-
.	.	8F/L	.	4f\	.	4g\	-ne-
.	.	8G/J	.	.	.	.	.
.	.	2A/	.	[>2e\	.	2cc\	-di-
!	!	!	!	!LO:LB:g=original	!	!	!
=84	=84	=84	=84	=84	=84	=84	=84
2D/	et	4D/	.	4e\]	.	2f/	-ct(us)
.	.	8E/L	.	8f\L	-tris	.	.
.	.	8F/J	.	8e\J	.	.	.
!	!	!	!	!LO:TX:t=P:problem=w źródle tekst poprawiany i delikatnie rozmazany	!	!	!
!	!	!	!	!	!	!LO:TX:t=P:problem=♭ above	!
4GG/	be-	4G/	.	2d\	Tu-	4b-Xi\	fru-
4GG/	-ne-	4F/	.	.	.	4b-\	-ct(us)
!	!	!	!	!	!	!LO:LB:g=original	!
=85	=85	=85	=85	=85	=85	=85	=85
2C/	-di-	4E/	.	2c/	-i	4b-\	ven-
.	.	8F/L	.	.	.	8cc\L	.
.	.	8G/J	.	.	.	8b-\J	.
2FF/	-ct(us)	[<2A/	.	2r	.	4a\	.
.	.	.	.	.	.	8b-\L	.
.	.	.	.	.	.	8cc\J	.
!	!	!LO:LB:g=original	!	!	!	!	!
=86	=86	=86	=86	=86	=86	=86	=86
4BB-X/	fru-	4A/]	.	2d\	et	2.dd\	.
4BB-/	-ct(us)	8G/L	.	.	.	.	.
.	.	8F/J	.	.	.	.	.
4BB-/	Ven-	[<2G/	.	4G/	be-	.	.
(<8C/L	-tris	.	.	4G/	-ne-	8ee-X\L	.
8BB-/J)	.	.	.	.	.	8dd\J	.
=87	=87	=87	=87	=87	=87	=87	=87
2.AA/	Ven-	4G/]	.	2c/	-di-	4cc\	.
.	.	8F/L	.	.	.	4f/	-tris
.	.	8E/J	.	.	.	.	.
.	.	4F/	.	2F/	-ct(us)	[<2ff\	Ven-
4BB-/	-tris	4G/	.	.	.	.	.
=88	=88	=88	=88	=88	=88	=88	=88
1C	Tu-	4A/	.	4c/	fru-	4ff\]	.
.	.	4B-X\	-tris	4c/	-ctus	8een\L	-tris
.	.	.	.	.	.	8dd\J	.
.	.	2G/	Tu-	4B-X/	ven-	2een\	Tu-
.	.	.	.	4B-/	-tris	.	.
=89	=89	=89	=89	=89	=89	=89	=89
2F\	-i	2F/	-i	4A/	tu-	2ff\	-i
.	.	.	.	4A,</	-i	.	.
4D\	ven-	2r	.	[<2a\	Ven-	2r	.
8E\L	.	.	.	.	.	.	.
8F\J	.	.	.	.	.	.	.
=90	=90	=90	=90	=90	=90	=90	=90
!	!	!	!	!LO:N:xstem:cue	!	!	!
4G\	.	2d\	et	4a\]	.	2b-X\	fru-
4F\	.	.	.	8g\L	.	.	.
.	.	.	.	8f\J	.	.	.
4E\	.	4G/	be-	[<2g\	.	2cc\	-ct(us)
8F\L	.	4G/	-ne-	.	.	.	.
8G\J	.	.	.	.	.	.	.
!LO:LB:g=original	!	!	!	!	!	!	!
=91	=91	=91	=91	=91	=91	=91	=91
4A\	.	2c\	-di-	4g\]	.	4a\	ven-
4G\	.	.	.	8f\L	.	(>8b-\L	.
.	.	.	.	8e\J	.	8cc\J)	.
4F\	.	2A/	-ct(us)	[<2f\	.	[<2dd\	.
8G\L	.	.	.	.	.	.	.
8A\J	.	.	.	.	.	.	.
=92	=92	=92	=92	=92	=92	=92	=92
4B-X\	.	4d\	fru-	4f\]	.	4dd\]	.
4G\	-tris	4d\	-ct(us)	4g\	-tris	(>8een\L	-tris
.	.	.	.	.	.	8dd\J)	.
2A\	Tu-	4en\	ven-	2e\	Tu-	2cc#X\	Tu-
.	.	4e\	-tris	.	.	.	.
!	!	!	!	!LO:LB:g=original	!	!LO:LB:g=original	!
=93	=93	=93	=93	=93	=93	=93	=93
2D/	-i	4f\	Tu-	2d\	-i	2dd\	-i
.	.	4f\	-i	.	.	.	.
2r	.	4A/	Ven-	2r	.	2rb	.
.	.	8B-\L	.	.	.	.	.
.	.	8c\J	.	.	.	.	.
=94	=94	=94	=94	=94	=94	=94	=94
1r	.	2d\	.	4d\	Ven-	1r	.
.	.	.	.	8e\L	.	.	.
.	.	.	.	8f\J	.	.	.
!	!	!LO:LB:g=original	!	!	!	!	!
.	.	4G/	.	2g\	.	.	.
.	.	8A/L	.	.	.	.	.
.	.	8B-/J	.	.	.	.	.
=95	=95	=95	=95	=95	=95	=95	=95
!LO:TX:a:t=P:problem=w źródle et zapisane jako &	!	!	!	!	!	!	!
2A\	et	2c\	.	4c\	.	2r	.
.	.	.	.	(>8d\L	.	.	.
.	.	.	.	8e\J)	.	.	.
4D/	be-	4F/	.	2f\	.	2a\	et
4D/	-ne-	8G/L	.	.	.	.	.
.	.	8A/J	.	.	.	.	.
=96	=96	=96	=96	=96	=96	=96	=96
2G\	-di-	2.B-\	.	2d\	-tris	4d/	be-
.	.	.	.	.	.	4d/	-ne-
2C/	-ct(us)	.	.	2r	.	2g/	-di-
.	.	8c\L	-tris	.	.	.	.
.	.	8B-\J	.	.	.	.	.
=97	=97	=97	=97	=97	=97	=97	=97
4F\	fru-	2.A/	Tu-	2a\	et	2cc\	-ct(us)
4F\	-ct(us)	.	.	.	.	.	.
4F\	ven-	.	.	4d\	be-	4dd\	fru-
8G\L	-tris	8B-\L	.	4d\	-ne-	4dd\	-ct(us)
8F\J	.	8A\J	.	.	.	.	.
=98	=98	=98	=98	=98	=98	=98	=98
*	*	*	*^	*	*	*	*
!	!	!LO:TX:a:t=P:problem=w źródle poprawiony tekst	!	!	!	!	!	!
4E\	ven-	2G/	-i	//-tris//	2g\	-di-	4dd\	Ven-
8F\L	.	.	.	.	.	.	8ee-X\L	.
8G\J	.	.	.	.	.	.	8dd\J	.
2A\	.	2r	.	.	2c/	-ct(us)	[<2cc\	.
*	*	*	*v	*v	*	*	*	*
=99	=99	=99	=99	=99	=99	=99	=99
!	!	!	!	!	!	!LO:N:xstem:cue	!
4D\	.	4d\	fru-	4f\	fru-	4cc\]	.
8E\L	.	4d\	-ct(us)	4f\	-ct(us)	8b-X\L	.
8F\J	.	.	.	.	.	8a\J	.
2G\	.	4d\	ven-	4f\	Ven-	2b-X\	.
.	.	4d\	-tris	(>8g\L	-tris	.	.
.	.	.	.	8f\J)	.	.	.
!LO:LB:g=original	!	!	!	!	!	!	!
=100	=100	=100	=100	=100	=100	=100	=100
4C/	.	1c	Tu-	(>4e\	Tu-	4g/	.
4F\	-tris	.	.	4f\)	.	4a\	-tris
2C/	Tu-	.	.	2e\	.	2g/	Tu-
=101	=101	=101	=101	=101	=101	=101	=101
1F	-i	1c	-i	1f	-i	1a	-i
=102	=102	=102	=102	=102	=102	=102	=102
4C/	be-	4c\	be-	4e\	be-	4g/	be-
4C/	-ne-	4c\	-ne-	4e\	-ne-	4g/	-ne-
4C/	-di-	4c\	-di-	4e\	-di-	4g/	-di-
4C/	-ct(us)	4G/	-ct(us)	4e\	-ct(us)	4cc\	-ct(us)
!	!	!	!	!LO:LB:g=original	!	!LO:LB:g=original	!
=103	=103	=103	=103	=103	=103	=103	=103
2D/	fru-	2d\	fru-	2f\	fru-	2a\	fru-
2BB-X/	-ct(us)	2d\	-ct(us)	2f\	-ct(us)	2b-X\	-ct(us)
!	!	!LO:LB:g=original	!	!	!	!	!
=104	=104	=104	=104	=104	=104	=104	=104
2C/	Ven-	2c\	Ven-	2e\	Ven-	2g/	Ven-
2C/	-tris	2c\	-tris	2e\	-tris	2g/	-tris
=105	=105	=105	=105	=105	=105	=105	=105
2F\	Tu-	1c	Tu-	2f\	Tu-	2a\	Tu-
2C/	.	.	.	2e\	.	2g/	.
=106	=106	=106	=106	=106	=106	=106	=106
!	!	!LO:TX:t=P:problem=fermata pod nutą bez kropki	!	!	!	!	!
!LO:TX:b:Bi:t=O&colon; ad M D G.	!	!LO:TX:b:Bi:t=O. ad M. D G.	!	!LO:TX:b:Bi:t=O ad MDG.	!	!LO:TX:b:Bi:t=O ad MDG	!
!LO:TX:a:Bi:t=alleluja da\nCapo.	!	!LO:TX:a:Bi:t=Alleluia da Capo.	!	!LO:TX:a:Bi:t=Alleluia da Capo.	!	!LO:TX:a:Bi:t=Alleluia da Capo	!
1FF;>	-i.	1c;<	-i.	1f;>	-i.	1a	-is
==	==	==	==	==	==	==	==
*-	*-	*-	*-	*-	*-	*-	*-
!!!system-decoration: [(s1,s2,s3,s4)]
!!!RDF**kern: > = above
!!!RDF**kern: < = below
!!!RDF**kern: i = editorial accidental
!!!EED: Wojciech Jakubiak-Danek
!!!EEV: 2021-01-22
!!!ENC: Marcin Jachim
!!!END: 2021-01-20
!!!YEC: Copyright 2022 Narodowy Instytut Fryderyka Chopina (https://polishscores.org)
!!!YEM: License CC-BY-4.0 (https://creativecommons.org/licenses/by/4.0)
